static/assets/images/networks/metis.svg

<svg width="256" height="256" viewBox="0 0 256 256" fill="none" xmlns="http://www.w3.org/2000/svg">
<path d="M256 128C256 102.684 248.494 77.9363 234.428 56.887C220.364 35.8374 200.373 19.4314 176.984 9.74345C153.595 0.0554609 127.858 -2.47936 103.029 2.45954C78.199 7.39842 55.3916 19.5892 37.4903 37.4903C19.5893 55.3913 7.39846 78.1987 2.45954 103.028C-2.47937 127.858 0.0554609 153.594 9.74349 176.983C19.4315 200.372 35.8376 220.363 56.8871 234.427C77.9367 248.492 102.684 256 128 256C144.809 256.001 161.455 252.692 176.985 246.259C192.517 239.828 206.627 230.399 218.514 218.514C230.4 206.627 239.829 192.516 246.26 176.986C252.693 161.455 256.003 144.81 256 128Z" fill="#00CFFF"/>
<path d="M221.32 121.772C218.308 119.496 215.178 117.384 211.937 115.446C210.541 114.563 209.242 113.535 208.061 112.378C205.64 109.99 201.606 105.8 200.292 103.222C199.439 101.64 199.787 98.6197 200.451 95.7888C201.586 90.8267 200.722 85.6172 198.046 81.2868L193.837 74.4232C191.895 71.3007 190.34 67.9553 189.201 64.46C187.743 59.9715 185.212 55.9059 181.827 52.6147C174.977 45.9251 156.006 42.6515 140.263 42.1137C139.289 41.83 138.302 41.5977 137.304 41.4178C130.279 40.2159 122.811 38.2549 116.086 39.5517C106.134 41.4021 96.055 44.5176 88.5394 52.2035C86.9571 53.785 84.6471 54.4966 83.0174 55.9674C79.7739 58.8931 75.4226 58.8931 72.543 62.1352C70.8499 64.0328 70.0747 70.2005 65.6604 72.557C58.3504 76.4791 53.0024 80.7807 51.1829 82.9789C49.838 84.6393 48.8096 86.5689 47.5121 88.261C46.2146 89.9531 39.8858 93.0055 38.0187 94.7608C36.6226 96.3089 35.6092 98.1626 35.0597 100.173C34.5101 102.184 34.4397 104.295 34.8542 106.337C34.9651 106.828 35.0441 107.223 35.1075 107.539C35.8352 110.228 37.7972 115.083 37.3383 117.313C36.8162 119.954 30.0127 139.627 45.2496 144.877C46.6396 145.296 47.8595 146.147 48.7307 147.309C49.6018 148.47 50.0786 149.879 50.0911 151.33C50.4022 153.957 51.1565 156.513 52.3221 158.89C53.3346 160.817 54.828 162.452 56.6574 163.634C58.6092 165.493 60.4529 167.462 62.1794 169.533C67.559 179.48 66.0559 184.447 76.4195 187.831C79.0649 188.704 81.6063 189.866 83.9984 191.294C86.9092 193.048 90.0298 194.43 93.2861 195.406L93.6975 195.548C95.9917 190.028 98.3017 184.777 100.628 179.843C94.6272 173.991 90.3458 166.607 88.2481 158.494C86.1505 150.381 86.3169 141.848 88.7292 133.823C88.7798 133.652 88.8728 133.495 89.0001 133.369C89.1272 133.243 89.2841 133.152 89.4563 133.103C89.6286 133.054 89.8102 133.049 89.9848 133.089C90.1592 133.13 90.3206 133.213 90.4539 133.333C94.3461 136.749 106.181 149.052 104.789 171.288C108.887 163.112 112.858 155.917 116.497 149.78C112.103 142.598 109.747 134.354 109.683 125.935C109.619 117.515 111.849 109.237 116.134 101.988C116.231 101.838 116.365 101.715 116.522 101.629C116.68 101.544 116.856 101.499 117.035 101.499C117.215 101.499 117.391 101.544 117.548 101.629C117.706 101.715 117.839 101.838 117.937 101.988C120.675 106.037 128.079 119.384 123.491 138.441C126.829 133.349 129.535 129.585 131.291 127.228C136.038 95.599 159.961 85.2403 166.243 83.0421C166.411 82.9798 166.592 82.9613 166.769 82.9879C166.946 83.0146 167.113 83.0858 167.256 83.1948C167.398 83.3037 167.511 83.4471 167.582 83.6113C167.654 83.7754 167.684 83.9549 167.667 84.1334C166.684 93.7593 163.177 102.956 157.501 110.794C151.826 118.633 144.182 124.836 135.342 128.778C132.003 133.159 128.807 137.777 125.738 142.522C136.323 134.234 151.179 130.344 163.522 133.333C163.695 133.374 163.857 133.457 163.99 133.575C164.125 133.694 164.227 133.844 164.289 134.012C164.349 134.18 164.368 134.361 164.341 134.537C164.315 134.714 164.245 134.882 164.139 135.025C160.594 139.769 146.481 155.585 119.836 151.914C115.358 159.491 111.229 167.161 107.589 174.482C119.061 165.816 135.832 162.48 148.839 166.859C149.012 166.913 149.17 167.011 149.295 167.141C149.422 167.272 149.513 167.431 149.559 167.607C149.607 167.782 149.609 167.967 149.565 168.143C149.522 168.32 149.436 168.482 149.313 168.615C145.278 172.965 129.725 187.23 104.14 181.568C101.735 186.644 98.1593 194.963 96.4189 199.075C95.8177 200.498 95.2639 201.921 94.8367 203.375C93.7133 206.729 92.1785 210.92 90.3589 215.111C90.1061 215.707 89.9786 216.35 89.9838 216.998C89.9891 217.647 90.1273 218.286 90.3897 218.88C90.6521 219.472 91.0333 220.005 91.5097 220.445C91.986 220.884 92.5475 221.223 93.1595 221.437C113.339 228.645 135.252 229.458 155.91 223.761C156.594 223.567 157.223 223.221 157.755 222.749C158.285 222.28 158.704 221.695 158.981 221.042C159.408 220.029 159.834 219.064 159.834 219.064C159.834 219.064 168.758 198.347 170.071 189.318C170.45 186.473 171.334 183.72 172.682 181.188C173.381 179.92 174.392 178.853 175.618 178.083C176.844 177.313 178.247 176.87 179.692 176.791C186.479 176.428 200.957 175.479 206.226 173.818C213.234 171.588 210.198 158.842 209.817 157.482C209.437 156.122 213.188 152.911 213.962 151.046C214.739 149.179 212.064 148.547 210.972 146.49C209.881 144.435 213.678 142.979 214.216 141.114C214.754 139.248 212.982 137.223 212.27 135.847C211.783 134.848 211.447 133.782 211.272 132.684C211.272 132.684 216.399 128.936 219.184 126.564C221.97 124.192 221.399 122.247 221.384 121.82" fill="black"/>
</svg>

<svg xmlns="http://www.w3.org/2000/svg" fill="none" viewBox="0 0 256 256"><path fill="#00CFFF" d="M256 128a128 128 0 0 0-21.572-71.113A127.99 127.99 0 0 0 103.029 2.46a128 128 0 1 0 73.956 243.799A127.98 127.98 0 0 0 256 128"/><path fill="#000" d="M221.32 121.772a105 105 0 0 0-9.383-6.326 23.5 23.5 0 0 1-3.876-3.068c-2.421-2.388-6.455-6.578-7.769-9.156-.853-1.582-.505-4.602.159-7.433a19.37 19.37 0 0 0-2.405-14.502l-4.209-6.864a45.6 45.6 0 0 1-4.636-9.963 29 29 0 0 0-7.374-11.845c-6.85-6.69-25.821-9.964-41.564-10.501a29 29 0 0 0-2.959-.696c-7.025-1.202-14.493-3.163-21.218-1.866-9.952 1.85-20.031 4.966-27.547 12.651-1.582 1.582-3.892 2.294-5.522 3.764-3.243 2.926-7.594 2.926-10.474 6.168-1.693 1.898-2.468 8.066-6.883 10.422-7.31 3.922-12.658 8.224-14.477 10.422-1.345 1.66-2.373 3.59-3.67 5.282-1.298 1.692-7.627 4.745-9.494 6.5a13.33 13.33 0 0 0-3.165 11.576c.111.491.19.886.254 1.202.727 2.689 2.69 7.544 2.23 9.774-.522 2.641-7.325 22.314 7.912 27.564a6.8 6.8 0 0 1 4.841 6.453 23.4 23.4 0 0 0 2.231 7.56 12.66 12.66 0 0 0 4.335 4.744 70 70 0 0 1 5.522 5.899c5.38 9.947 3.877 14.914 14.24 18.298a38 38 0 0 1 7.58 3.463 40.6 40.6 0 0 0 9.287 4.112l.412.142c2.294-5.52 4.604-10.771 6.93-15.705a45.85 45.85 0 0 1-11.899-46.02 1.06 1.06 0 0 1 .727-.72 1.06 1.06 0 0 1 .998.23c3.892 3.416 15.727 15.719 14.335 37.955 4.098-8.176 8.069-15.371 11.708-21.508a46.37 46.37 0 0 1-.363-47.792 1.08 1.08 0 0 1 .901-.489 1.08 1.08 0 0 1 .902.489c2.738 4.049 10.142 17.396 5.554 36.453 3.338-5.092 6.044-8.856 7.8-11.213 4.747-31.629 28.67-41.988 34.952-44.186a1.06 1.06 0 0 1 1.424 1.091 55.02 55.02 0 0 1-32.325 44.645c-3.339 4.381-6.535 8.999-9.604 13.744 10.585-8.288 25.441-12.178 37.784-9.189a1.08 1.08 0 0 1 .767.679 1.08 1.08 0 0 1-.15 1.013c-3.545 4.744-17.658 20.56-44.303 16.889a358 358 0 0 0-12.247 22.568c11.472-8.666 28.243-12.002 41.25-7.623a1.08 1.08 0 0 1 .72.748c.048.175.05.36.006.536a1.06 1.06 0 0 1-.252.472c-4.035 4.35-19.588 18.615-45.173 12.953-2.405 5.076-5.98 13.395-7.721 17.507-.601 1.423-1.155 2.846-1.582 4.3-1.124 3.354-2.659 7.545-4.478 11.736a4.74 4.74 0 0 0 1.15 5.334 4.75 4.75 0 0 0 1.65.992 104.2 104.2 0 0 0 62.751 2.324 4.7 4.7 0 0 0 1.845-1.012 4.8 4.8 0 0 0 1.226-1.707c.427-1.013.853-1.978.853-1.978s8.924-20.717 10.237-29.746a24 24 0 0 1 2.611-8.13 8.53 8.53 0 0 1 7.01-4.397c6.787-.363 21.265-1.312 26.534-2.973 7.008-2.23 3.972-14.976 3.591-16.336s3.371-4.571 4.145-6.436c.777-1.867-1.898-2.499-2.99-4.556-1.091-2.055 2.706-3.511 3.244-5.376s-1.234-3.891-1.946-5.267a11.3 11.3 0 0 1-.998-3.163s5.127-3.748 7.912-6.12 2.215-4.317 2.2-4.744"/></svg>
